client/src/components/style/Media/cardIcons/humidity.svg

<?xml version="1.0" encoding="UTF-8"?>
<svg version="1.1" viewBox="0 0 32 32" xml:space="preserve" xmlns="http://www.w3.org/2000/svg" xmlnsCc="http://creativecommons.org/ns#" xmlnsDc="http://purl.org/dc/elements/1.1/" xmlnsRdf="http://www.w3.org/1999/02/22-rdf-syntax-ns#"><g transform="matrix(1.9491 0 0 1.9491 .22041 .37346)"><circle cx="9.5" cy="12.5" r=".5"/><circle cx="6.5" cy="7.5" r=".5"/><path d="m10.776 3.524c-0.818-1.043-1.663-2.121-2.345-3.278-0.18-0.305-0.682-0.305-0.861 0-0.683 1.157-1.528 2.235-2.346 3.278-1.658 2.115-3.224 4.113-3.224 6.476 0 3.309 2.691 6 6 6s6-2.691 6-6c0-2.363-1.566-4.361-3.224-6.476zm-4.276 2.476c0.827 0 1.5 0.673 1.5 1.5s-0.673 1.5-1.5 1.5-1.5-0.673-1.5-1.5 0.673-1.5 1.5-1.5zm3 8c-0.827 0-1.5-0.673-1.5-1.5s0.673-1.5 1.5-1.5 1.5 0.673 1.5 1.5-0.673 1.5-1.5 1.5zm1.354-6.146-5 5c-0.098 0.097-0.226 0.146-0.354 0.146s-0.256-0.049-0.354-0.146c-0.195-0.195-0.195-0.512 0-0.707l5-5c0.195-0.195 0.512-0.195 0.707 0s0.196 0.512 1e-3 0.707z" fill="#212529"/></g></svg>

<?xml version="1.0" encoding="UTF-8" standalone="no"?>
<svg
   xmlns:dc="http://purl.org/dc/elements/1.1/"
   xmlns:cc="http://creativecommons.org/ns#"
   xmlns:rdf="http://www.w3.org/1999/02/22-rdf-syntax-ns#"
   xmlns:svg="http://www.w3.org/2000/svg"
   xmlns="http://www.w3.org/2000/svg"
   xmlns:sodipodi="http://sodipodi.sourceforge.net/DTD/sodipodi-0.dtd"
   xmlns:inkscape="http://www.inkscape.org/namespaces/inkscape"
   version="1.1"
   x="0px"
   y="0px"
   viewBox="0 0 32 32"
   xml:space="preserve"
   id="svg3869"
   sodipodi:docname="humidity.svg"
   width="32"
   height="32"
   inkscape:version="0.92.4 (5da689c313, 2019-01-14)"><metadata
     id="metadata3875"><rdf:RDF><cc:Work
         rdf:about=""><dc:format>image/svg+xml</dc:format><dc:type
           rdf:resource="http://purl.org/dc/dcmitype/StillImage" /><dc:title></dc:title></cc:Work></rdf:RDF></metadata><defs
     id="defs3873" /><sodipodi:namedview
     pagecolor="#ffffff"
     bordercolor="#666666"
     borderopacity="1"
     objecttolerance="10"
     gridtolerance="10"
     guidetolerance="10"
     inkscape:pageopacity="0"
     inkscape:pageshadow="2"
     inkscape:window-width="1366"
     inkscape:window-height="705"
     id="namedview3871"
     showgrid="false"
     inkscape:zoom="11.8"
     inkscape:cx="8"
     inkscape:cy="13.389831"
     inkscape:window-x="-8"
     inkscape:window-y="-8"
     inkscape:window-maximized="1"
     inkscape:current-layer="svg3869" 
   fill="#212529"/><g
     id="g3863"
     transform="matrix(1.9491165,0,0,1.9491165,0.22041102,0.37345826)"><circle
       cx="9.5"
       cy="12.5"
       r="0.5"
       id="circle3857" /><circle
       cx="6.5"
       cy="7.5"
       r="0.5"
       id="circle3859" /><path
      fill="#212529"
       d="M 10.776,3.524 C 9.958,2.481 9.113,1.403 8.431,0.246 8.251,-0.059 7.749,-0.059 7.57,0.246 6.887,1.403 6.042,2.481 5.224,3.524 3.566,5.639 2,7.637 2,10 c 0,3.309 2.691,6 6,6 3.309,0 6,-2.691 6,-6 C 14,7.637 12.434,5.639 10.776,3.524 Z M 6.5,6 C 7.327,6 8,6.673 8,7.5 8,8.327 7.327,9 6.5,9 5.673,9 5,8.327 5,7.5 5,6.673 5.673,6 6.5,6 Z m 3,8 C 8.673,14 8,13.327 8,12.5 8,11.673 8.673,11 9.5,11 10.327,11 11,11.673 11,12.5 11,13.327 10.327,14 9.5,14 Z m 1.354,-6.146 -5,5 C 5.756,12.951 5.628,13 5.5,13 5.372,13 5.244,12.951 5.146,12.854 c -0.195,-0.195 -0.195,-0.512 0,-0.707 l 5,-5 c 0.195,-0.195 0.512,-0.195 0.707,0 0.195,0.195 0.196,0.512 10e-4,0.707 z"
       id="path3861"
       inkscape:connector-curvature="0" /></g></svg>
